svg/furkot/nps/observatory.svg

<svg height="512" viewBox="0 0 512 512.1" width="512" xmlns="http://www.w3.org/2000/svg"><path d="m32.16 32.675h189.528v18.435h-18.384v20.484l-171.144 14.851zm269.057 54.794c24.171 0 43.682-19.459 43.682-43.528s-19.562-43.529-43.682-43.529c-24.171 0-43.784 19.46-43.784 43.529.051 24.069 19.613 43.528 43.784 43.528"/><path d="m334.299 85.421c12.495-12.802 32.672-12.802 45.167 0l94.585 94.226c3.636 3.585 5.787 8.706 5.787 13.827v283.704c0 19.459-15.722 35.334-35.233 35.334s-35.539-15.875-35.539-35.334v-234.03l-88.133-88.081-35.232 35.335c-3.995 4.608-9.935 7.681-16.797 7.681-6.299 0-11.983-2.56-16.029-7.169l-60.684-60.428c-7.732-9.218-7.067-23.557 2.049-31.238 9.166-7.682 22.891-6.145 30.623 3.072l46.14 46.089zm-183.844 13.315c-.87-4.097-4.609-7.682-9.013-7.682-4.558 0-8.245 3.585-9.013 7.682l-14.748 84.496v326.72h124.747v-46.089h-76.559l-.512-280.631z"/></svg>

<svg version="1.0" width="512" height="512" viewBox="0 0 512 512.1" xmlns="http://www.w3.org/2000/svg"><path d="M 32.16 32.675 L 221.688 32.675 L 221.688 51.11 L 203.304 51.11 L 203.304 71.594 L 32.16 86.445 L 32.16 32.675 Z M 301.217 87.469 C 325.388 87.469 344.899 68.01 344.899 43.941 C 344.899 19.872 325.337 0.412 301.217 0.412 C 277.046 0.412 257.433 19.872 257.433 43.941 C 257.484 68.01 277.046 87.469 301.217 87.469"/><path d="M 334.299 85.421 C 346.794 72.619 366.971 72.619 379.466 85.421 L 474.051 179.647 C 477.687 183.232 479.838 188.353 479.838 193.474 L 479.838 477.178 C 479.838 496.637 464.116 512.512 444.605 512.512 C 425.094 512.512 409.066 496.637 409.066 477.178 L 409.066 243.148 L 320.933 155.067 L 285.701 190.402 C 281.706 195.01 275.766 198.083 268.904 198.083 C 262.605 198.083 256.921 195.523 252.875 190.914 L 192.191 130.486 C 184.459 121.268 185.124 106.929 194.24 99.248 C 203.406 91.566 217.131 93.103 224.863 102.32 L 271.003 148.409 L 334.299 85.421 Z M 150.455 98.736 C 149.585 94.639 145.846 91.054 141.442 91.054 C 136.884 91.054 133.197 94.639 132.429 98.736 L 117.681 183.232 L 117.681 509.952 L 242.428 509.952 L 242.428 463.863 L 165.869 463.863 L 165.357 183.232 L 150.455 98.736 Z"/></svg>
